X:1
T:Title
%%score { 1 | ( 2 3 ) }
L:1/8
M:4/4
K:G
V:1 treble nm="Grand Piano"
V:2 treble 
V:3 treble 
V:1
 z4 z2[Q:1/4=100] D2 | BBBB c2 B2 | [EGB][FA] z2 z2 [FA]2 | [FA][FA][FA][FA] [Fd]2 [Ac]2 | %4
[M:3/4] B6 |[M:1/4] G2 |[M:4/4] BBBB c2 B2 | [GB][FA] z2 z4 | [FA][FA][FA][FA] [GB]2 [CFA]2 | %9
[M:3/4] [B,G]6 |[M:1/4] [G,B,D]2 |[M:4/4] [G,CE]2 [G,CE]2 [Ec] [Ec]3 | D2 D2 B2 z [DG] | %13
 AAAA B2 A2 |[M:3/4] Bd- d4 |[M:1/4] D2 |[M:4/4] E2 E2 [Ec] [Ec]3 | B2 B2 [Dd]3 [DG] | AAAA c2 F2 | %19
[M:3/4] G6 |] %20
V:2
 z4 z2 [G,B,]2 | [G,DG][G,DG][G,DG][G,DG] [G,EG]2 [G,DG]2 | D,[D,D] z2 z2 [D,D]2 | %3
 [D,D][D,D][D,D][D,D] [D,A,]2 [D,D]2 |[M:3/4][K:treble] [G,DG]6 |[M:1/4] [G,B,]2 | %6
[M:4/4] [G,DG][G,DG][G,DG][G,DG] [G,EG]2 [G,DG]2 | [D,D][D,D] z2 z2 [D,D]2 | %8
 [D,D][D,D][D,D][D,D] [D,D]2 D,2 |[M:3/4] G,6 |[M:1/4] G,,2 |[M:4/4] C,2 C,2 [C,G,] [C,G,]3 | %12
 [G,B,]2 [G,B,]2 [G,D]2 z [B,,G,] | [D,F,D][D,F,D][D,F,D][D,F,D] [D,G,D]2 [D,F,D]2 | %14
[M:3/4] z B,- B,4 |[M:1/4] [G,B,]2 |[M:4/4] [G,C]2 [C,G,C]2 [C,G,] [C,G,]3 | %17
 [G,D]2 [G,D]2 [B,,G,]3 [B,,G,] | [D,F,D][D,F,D][D,F,D][D,F,D] [D,A,D]2 [D,CD]2 | %19
[M:3/4] [G,B,D]6 |] %20
V:3
 x8 | x8 | x8 | x8 |[M:3/4][K:treble] x6 |[M:1/4] x2 |[M:4/4] x8 | x8 | x8 |[M:3/4] x6 | %10
[M:1/4] x2 |[M:4/4] x8 | x8 | x8 |[M:3/4] [G,D]6 |[M:1/4] x2 |[M:4/4] x8 | x8 | x8 |[M:3/4] x6 |] %20

